findly-builder/apps/searchassist/src/assets/icons/overview/graph-2.svg

<svg width="77" height="33" viewBox="0 0 77 33" fill="none" xmlns="http://www.w3.org/2000/svg">
<path d="M1 18.8462L3.28332 22.8022H4.86408L6.44483 18.8462H8.37687L10.3089 13.4066L11.3627 11.9231L12.7679 9.94506L13.6461 10.9341L13.9973 18.8462L16.1308 22.2418L16.8334 24.1209L17.3345 27.5275L18.564 32L19.2665 27.5275L20.1447 25.1099L20.2945 21.7033L21.7255 20.3297L23.6575 13.4066L25.2383 10.989L28.9267 7.47253L30.8588 9.94506L34.1959 11.9231L36.4792 17.8571L39.4651 18.8462L41.2215 13.4066L44.0317 11.9231L47.0176 14.3956L49.6522 13.4066L51.9355 8.46154L54.5701 5L57.2047 7.47253L59.6637 10.9341H62.2983L64.1606 13.4066L66.3199 12.5L68.4793 10.5L70.729 6.94506L72.7979 3.5" stroke="url(#paint0_linear)" stroke-width="2" stroke-linecap="round" stroke-linejoin="round"/>
<ellipse cx="72.5195" cy="3.24174" rx="3.5" ry="3.24174" fill="#28A745"/>
<defs>
<linearGradient id="paint0_linear" x1="71.7183" y1="20" x2="4.81405" y2="24.0778" gradientUnits="userSpaceOnUse">
<stop stop-color="#28A745"/>
<stop offset="1" stop-color="#93D3A2" stop-opacity="0.52"/>
</linearGradient>
</defs>
</svg>

<svg width="77" height="33" fill="none" xmlns="http://www.w3.org/2000/svg"><path d="m1 18.846 2.283 3.956h1.581l1.58-3.956h1.933l1.932-5.44 1.054-1.483 1.405-1.978.878.99.351 7.911 2.134 3.396.702 1.879.502 3.407L18.563 32l.703-4.473.878-2.417.15-3.407 1.43-1.373 1.932-6.923 1.581-2.418 3.689-3.516 1.932 2.472 3.337 1.978 2.283 5.934 2.986.99 1.756-5.44 2.81-1.484 2.987 2.473 2.634-.99 2.283-4.944L54.57 5l2.635 2.473 2.459 3.461h2.634l1.863 2.473 2.159-.907 2.16-2 2.249-3.555L72.798 3.5" stroke="url(#a)" stroke-width="2" stroke-linecap="round" stroke-linejoin="round"/><ellipse cx="72.519" cy="3.242" rx="3.5" ry="3.242" fill="#28A745"/><defs><linearGradient id="a" x1="71.718" y1="20" x2="4.814" y2="24.078" gradientUnits="userSpaceOnUse"><stop stop-color="#28A745"/><stop offset="1" stop-color="#93D3A2" stop-opacity=".52"/></linearGradient></defs></svg>
